X: 4
M: C|
L: 1/8
K: C
ED |\
edcA BA BG | A2 c2 c3 E |\
edce dcBd |\
[1 cB AG AGFE | DEFD GFED | C2 c2 c2 :|\
[2 cB AG AG Fe | fgfe dcBd | c2 C2 C2 |]


